static/img/guides/icons/dark/GithubCopilot.svg

<svg viewBox="0 0 512 416" xmlns="http://www.w3.org/2000/svg" fill-rule="evenodd" clip-rule="evenodd" fill="none"
    stroke-linejoin="round" stroke-miterlimit="2">
    <path
        d="M181.33 266.143c0-11.497 9.32-20.818 20.818-20.818 11.498 0 20.819 9.321 20.819 20.818v38.373c0 11.497-9.321 20.818-20.819 20.818-11.497 0-20.818-9.32-20.818-20.818v-38.373zM308.807 245.325c-11.477 0-20.798 9.321-20.798 20.818v38.373c0 11.497 9.32 20.818 20.798 20.818 11.497 0 20.818-9.32 20.818-20.818v-38.373c0-11.497-9.32-20.818-20.818-20.818z"
        fill-rule="nonzero" fill="white" />
    <path
        d="M512.002 246.393v57.384c-.02 7.411-3.696 14.638-9.67 19.011C431.767 374.444 344.695 416 256 416c-98.138 0-196.379-56.542-246.33-93.21-5.975-4.374-9.65-11.6-9.671-19.012v-57.384a35.347 35.347 0 016.857-20.922l15.583-21.085c8.336-11.312 20.757-14.31 33.98-14.31 4.988-56.953 16.794-97.604 45.024-127.354C155.194 5.77 226.56 0 256 0c29.441 0 100.807 5.77 154.557 62.722 28.19 29.75 40.036 70.401 45.025 127.354 13.263 0 25.602 2.936 33.958 14.31l15.583 21.127c4.476 6.077 6.878 13.345 6.878 20.88zm-97.666-26.075c-.677-13.058-11.292-18.19-22.338-21.824-11.64 7.309-25.848 10.183-39.46 10.183-14.454 0-41.432-3.47-63.872-25.869-5.667-5.625-9.527-14.454-12.155-24.247a212.902 212.902 0 00-20.469-1.088c-6.098 0-13.099.349-20.551 1.088-2.628 9.793-6.509 18.622-12.155 24.247-22.4 22.4-49.418 25.87-63.872 25.87-13.612 0-27.86-2.855-39.501-10.184-11.005 3.613-21.558 8.828-22.277 21.824-1.17 24.555-1.272 49.11-1.375 73.645-.041 12.318-.082 24.658-.288 36.976.062 7.166 4.374 13.818 10.882 16.774 52.97 24.124 103.045 36.278 149.137 36.278 46.01 0 96.085-12.154 149.014-36.278 6.508-2.956 10.84-9.608 10.881-16.774.637-36.832.124-73.809-1.642-110.62h.041zM107.521 168.97c8.643 8.623 24.966 14.392 42.56 14.392 13.448 0 39.03-2.874 60.156-24.329 9.28-8.951 15.05-31.35 14.413-54.079-.657-18.231-5.769-33.28-13.448-39.665-8.315-7.371-27.203-10.574-48.33-8.644-22.399 2.238-41.267 9.588-50.875 19.833-20.798 22.728-16.323 80.317-4.476 92.492zm130.556-56.008c.637 3.51.965 7.35 1.273 11.517 0 2.875 0 5.77-.308 8.952 6.406-.636 11.847-.636 16.959-.636s10.553 0 16.959.636c-.329-3.182-.329-6.077-.329-8.952.329-4.167.657-8.007 1.294-11.517-6.735-.637-12.812-.965-17.924-.965s-11.21.328-17.924.965zm49.275-8.008c-.637 22.728 5.133 45.128 14.413 54.08 21.105 21.454 46.708 24.328 60.155 24.328 17.596 0 33.918-5.769 42.561-14.392 11.847-12.175 16.322-69.764-4.476-92.492-9.608-10.245-28.476-17.595-50.875-19.833-21.127-1.93-40.015 1.273-48.33 8.644-7.679 6.385-12.791 21.434-13.448 39.665z"
        fill="white" />
</svg>

<svg width="512" height="416" viewBox="0 0 512 416" fill="none" xmlns="http://www.w3.org/2000/svg">
<g clip-path="url(#clip0_2_5)">
<path d="M181.33 266.143C181.33 254.646 190.65 245.325 202.148 245.325C213.646 245.325 222.967 254.646 222.967 266.143V304.516C222.967 316.013 213.646 325.334 202.148 325.334C190.651 325.334 181.33 316.014 181.33 304.516V266.143ZM308.807 245.325C297.33 245.325 288.009 254.646 288.009 266.143V304.516C288.009 316.013 297.329 325.334 308.807 325.334C320.304 325.334 329.625 316.014 329.625 304.516V266.143C329.625 254.646 320.305 245.325 308.807 245.325Z" fill="white"/>
<path fill-rule="evenodd" clip-rule="evenodd" d="M512.002 246.393V303.777C511.982 311.188 508.306 318.415 502.332 322.788C431.767 374.444 344.695 416 256 416C157.862 416 59.621 359.458 9.67002 322.79C3.69502 318.416 0.0200234 311.19 -0.000976562 303.778V246.394C-0.000975418 238.868 2.40127 231.538 6.85602 225.472L22.439 204.387C30.775 193.075 43.196 190.077 56.419 190.077C61.407 133.124 73.213 92.473 101.443 62.723C155.194 5.77 226.56 0 256 0C285.441 0 356.807 5.77 410.557 62.722C438.747 92.472 450.593 133.123 455.582 190.076C468.845 190.076 481.184 193.012 489.54 204.386L505.123 225.513C509.599 231.59 512.001 238.858 512.001 246.393H512.002ZM414.336 220.318C413.659 207.26 403.044 202.128 391.998 198.494C380.358 205.803 366.15 208.677 352.538 208.677C338.084 208.677 311.106 205.207 288.666 182.808C282.999 177.183 279.139 168.354 276.511 158.561C269.709 157.87 262.879 157.507 256.042 157.473C249.944 157.473 242.943 157.822 235.491 158.561C232.863 168.354 228.982 177.183 223.336 182.808C200.936 205.208 173.918 208.678 159.464 208.678C145.852 208.678 131.604 205.823 119.963 198.494C108.958 202.107 98.405 207.322 97.686 220.318C96.516 244.873 96.414 269.428 96.311 293.963C96.27 306.281 96.229 318.621 96.023 330.939C96.085 338.105 100.397 344.757 106.905 347.713C159.875 371.837 209.95 383.991 256.042 383.991C302.052 383.991 352.127 371.837 405.056 347.713C411.564 344.757 415.896 338.105 415.937 330.939C416.574 294.107 416.061 257.13 414.295 220.319H414.336V220.318ZM107.521 168.97C116.164 177.593 132.487 183.362 150.081 183.362C163.529 183.362 189.111 180.488 210.237 159.033C219.517 150.082 225.287 127.683 224.65 104.954C223.993 86.723 218.881 71.674 211.202 65.289C202.887 57.918 183.999 54.715 162.872 56.645C140.473 58.883 121.605 66.233 111.997 76.478C91.199 99.206 95.674 156.795 107.521 168.97ZM238.077 112.962C238.714 116.472 239.042 120.312 239.35 124.479C239.35 127.354 239.35 130.249 239.042 133.431C245.448 132.795 250.889 132.795 256.001 132.795C261.113 132.795 266.554 132.795 272.96 133.431C272.631 130.249 272.631 127.354 272.631 124.479C272.96 120.312 273.288 116.472 273.925 112.962C267.19 112.325 261.113 111.997 256.001 111.997C250.889 111.997 244.791 112.325 238.077 112.962ZM287.352 104.954C286.715 127.682 292.485 150.082 301.765 159.034C322.87 180.488 348.473 183.362 361.92 183.362C379.516 183.362 395.838 177.593 404.481 168.97C416.328 156.795 420.803 99.206 400.005 76.478C390.397 66.233 371.529 58.883 349.13 56.645C328.003 54.715 309.115 57.918 300.8 65.289C293.121 71.674 288.009 86.723 287.352 104.954Z" fill="white"/>
</g>
<defs>
<clipPath id="clip0_2_5">
<rect width="512" height="416" fill="white"/>
</clipPath>
</defs>
</svg>
